X:1
T:Ballade
T:Ballade
T:F.Chopin, Op.23. 
C:F.Chopin, Op.23.
%%score { ( 1 3 4 5 ) | ( 2 6 7 ) }
L:1/8
Q:1/4=68
M:4/4
K:Bb
V:1 treble nm="Piano" snm="Pno."
V:3 treble 
V:4 treble 
V:5 treble 
V:2 bass 
V:6 bass 
V:7 bass 
V:1
"^Largo"!f![I:staff +1] (C,4- C,E,_A,B, |[I:staff -1] C_A,EB c_A[Q:1/4=64]eb | %2
[Q:1/4=60] c'gb!>(!_a[Q:1/4=56] g2[Q:1/4=30] ^f)[Q:1/4=68] z!>)! | z!p! (^fgf ^ef (3ag_e | %4
 e>d[Q:1/4=60] (3=fed[Q:1/4=40] d2)[Q:1/4=68] z2 | z4 (!>!c3[Q:1/4=60]!<(! G | %6
[Q:1/4=68] B8-)!<)! ||[M:6/4][Q:3/8=92]"^Moderato" B6z!p!(xD^FBA | G6)[Q:3/8=88] (d6 | %9
[Q:3/8=84] c6)z(xD^F[Q:3/8=92]BA | G6)[Q:3/8=88] (=E6 |[Q:3/8=84] ^F6)[Q:3/8=80]z(xDF[Q:3/8=92]BA | %12
 G6)[Q:3/8=88] (g6 |[Q:3/8=84] f6)[Q:3/8=80](xFxe dz/^c/) |[Q:3/8=88] ^c6 (d6 | %15
[Q:3/8=84] c6)z(xD^F[Q:3/8=92]BA) | G6[Q:3/8=88] (d6 |[Q:3/8=84] c6)z(xD^F[Q:3/8=92]BA | %18
 G6)[Q:3/8=88] (=E6 |[Q:3/8=84] ^F6)z(xDF[Q:3/8=92]BA | G6) (g6 | g6 d6 | %22
[Q:3/8=88] c6[Q:3/8=84] G6) |[Q:3/8=92]"^\n" (g6 d6 |[Q:3/8=88] c6[Q:3/8=84] G6 | %25
 F6)[Q:3/8=88] (d6- |!<(! d2{/d} c2 =B2 c2 d2!<)! e2 |[Q:3/8=84]!p!!>(! e6[Q:3/8=80] d6)!>)! | %28
[Q:3/8=80]!p!!<(! z2[Q:3/8=88]{/B} (A2 ^G2 A2 B2!<)! c2 |[Q:3/8=84]!p! c6[Q:3/8=80] B6) | %30
[Q:3/8=88]!p! (A6"^riten."[Q:3/8=86]!<(! A4- A[Q:3/8=80]A!<)! | %31
[Q:3/8=92]!p! x/4x/4 A6- A4) (!>!A2- | %32
[Q:3/8=88]!p! A/B/A/^G/[Q:3/8=82] A/=g/=e/f/[Q:3/8=88] f/g'/f'/=e'/[Q:3/8=80] (6:2:6_e'c'abd'c' (6:2:6bgfd_e=e (6:2:6f^f[Q:3/8=70]ag[Q:3/8=60]=f_e | %33
[Q:3/8=92] ^c) z (!>!d4- d2 =c2 G2 | B6 ^F6 | %35
[Q:3/8=104]"^(a tempo)" G2)!p!"_cresc." ([Bb]dfe- e2) ([Aa]^ced- | %36
[Q:3/8=112] d2) ([Bb]dfe- e2) ([_A_a]^ced- |[Q:3/8=120] d2) ([Gg]=Bdc- c2) ([Cc]^G_BA- | %38
[Q:3/8=126] A2) ([Ee]=Bdc- c2)!<(! (G2 [^FA]2)!<)! | %39
!f!"^agitato"[Q:3/8=132] [B,GB]2 (!>![Bb]dfe)[Q:3/8=136] z2 (!>![Aa]^ced) | %40
[Q:3/8=140] z2 (!>![Bb]dfe)[Q:3/8=144] z2 (!>![_A_a]^ced) | %41
[Q:3/8=148]!f! z2 (!>![Gg]=Bdc)[Q:3/8=152] z2 (!>![Cc]^G_BA) | %42
[Q:3/8=156] z2 (!>![Ee]=Bdc)[Q:3/8=160] z2 (!>![^F,^F]^CED | %43
[Q:3/8=164]!f! [B,G]2) (!>![G,C]B,A,G, [B,G]2) (!>![G,C]B,A,G,) | %44
"^semple più mosso"[Q:3/8=168] (^FCE^F,CE ^Fc=fedc | .[Bg]2) (!>![Gc]BAG [Bg]2) !>![Gc]BAG | %46
 (=fce^Fce ^fc'=f'e'd'c' | %47
 .[bg']2) z!f![Q:3/8=152]!8va(! [g'c''](b'd'[Q:3/8=168] [^f'b']a'd'[^fb]ad | %48
 [gc']bd'[Q:3/8=172][g'c'']b'd' [^f'b']a'd'[^fb]ad | %49
 [gc']bd'[Q:3/8=176][g'c'']b'd' [^f'b']a'd'[^fb]ad!8va)! | [Gc]Bd[gc']bd [^fb]ad[^FB]AD | %51
 [Gc]Bd[gc']bd [da]gB[Be]dG |"_dim." [Gc]BD[DA]GB,[K:bass][Q:3/8=180] [B,E]DG,=CB,D,) | %53
 ([G,C]B,D,[G,D]CE, [G,C]B,D,[G,D]CE, | [G,C]B,D,[G,D]CE, [G,C]B,D,[G,D]CE,) | %55
[K:treble]!mp! (G,!<(!DB,DGB dgb!8va(!d'g'd''!<)! | %56
!mf! b'!>(!d''g'd'!8va)!bg dBGDB,!>)![I:staff +1]D,) | %57
!mp![I:staff -1] (!>!G,DB,DGd BdGDB,[I:staff +1]D,) | %58
[I:staff -1] (!>!^F,DB,D^Fd BdFDB,[I:staff +1]D,) |[I:staff -1] (!>!G,DB,DGB dgb!8va(!d'g'd'' | %60
 b'd''g'd'!8va)!bg dBGDB,[I:staff +1]D,) | %61
[Q:3/8=172][I:staff -1] (!>!_G,DB,D_Gd BdGDB,[I:staff +1]D,) | %62
[Q:3/8=160][I:staff -1] (!>!F,DB,"^calando"DFd[Q:3/8=152] BdFDB,[I:staff +1]D,) | %63
"^smorz."[Q:3/8=140][I:staff -1] (F,CA,CFA[Q:3/8=130] cfac'!8va(!f'a' | %64
[Q:3/8=120] f''2)!8va)! z2 z2 z4[Q:3/8=104] z2 | z12[Q:3/8=92] | %66
 z4[Q:3/8=80] z2 z4"^sotto voce""^Meno mosso"[Q:3/8=60]!pp! (!>![CF]2- |!pp![Q:3/8=110] F6 G4 G2 | %68
 E6-) E2 (e3 d | c6 d4 d2 | B6) (b4 b2 | b4 _a2) (a2 g2 ^f2 | ^f4 g2- g2) (_a3 e | %73
 g4 =f2- f2)[Q:3/8=104] (g3 d |[Q:3/8=108] f2 e2 d2[Q:3/8=92] (3cdc[Q:3/8=88] =Bcde | %75
[Q:3/8=110] (F6) G4 G2 | E6-) E2 (e3 d | c6 d4 d2 | B6) (!>!b4 b2 | b6 c4) (d2 | %80
[Q:3/8=108] (3efe d2 e2 g2)[Q:3/8=82] (!>!g2-[Q:3/8=60] (3gfe |[Q:3/8=120] e6) z2 (G_A (3Bdc | %82
 B6-) B2 (G_A (3Bdc | B6-) B2 (F_A (3Bdc |[Q:3/8=110] B2-)[Q:3/8=100] (3B(_DE (3GcB _A2-) A(_CEF | %85
[Q:3/8=120] G4) z2 z2!p! (G_A (3Bdc |[Q:3/8=120] B2) !>!b4- b2 (3z (G_A (3Bdc | %87
 B2) !>!b4- b2 (3z (F_A (3Bdc |[Q:3/8=110] B2-)[Q:3/8=100] (3B(_DE (3GcB _A2-) A_CEF | %89
[Q:3/8=120] G6- G (GB[Q:3/8=114]g!p!fe |[Q:3/8=120]"_dim." d6-) d(Bd[Q:3/8=114]bde | %91
[Q:3/8=118] =e2 f4-) f(df[Q:3/8=100]d'c'b | %92
[Q:3/8=92] ^ga[Q:3/8=80]f'=e'd'a[Q:3/8=72][I:staff +1] d[I:staff -1]AFD[Q:3/8=68]=E[Q:3/8=50]{/G}F | %93
!pp![Q:3/8=92][I:staff +1] =E,6)[I:staff -1]z(x=E^Gc=B | A6) (=e6 | d6)z(x=E^Gc=B | A6) (!>!^F6 | %97
 ^G6)z(x=EGc=B | A6) (=e6 | ^f6)z!pp!(x=E^G=BA) |!<(! A6!<)!!f! (^f6 | %101
[Q:3/8=96]"_cresc." !>!^g6 ^f4) z (g |[Q:3/8=100] !>!^g6 ^f4) z (g |[Q:3/8=104] !>!^g6 ^f4) z (g | %104
[Q:3/8=108] !>!a6 ^g4 a2 |!ff![Q:3/8=112] [=B=d=e^g=b]6 [deg^c']4 [degc']2 | %106
 [A^ca]6) ([a^c'a']4 [^gc'^g']2 | [^f^c'^f']6 [=b^d'^g']4 [ad'g']2 | [=e^g=e']6) ([ee']4 [ee']2 | %109
 !>![=e=e']4 [dd']2) (3([dd'][ee'][dd'] [^c^c'][dd'][^f^f'][ee'] | %110
 !>![dd']4 [^c^c']2) (3([cc'][dd'][cc'] [^B^b][cc'][=e=e'][dd'] | %111
 [^c^c']2 [=B=b]3) ([^A^a] (4:3:4[Bb]2 [^B^b]2 [cc']2 [^G^g]2 | %112
 [=B=b]2 a3 [^G^g]{^fg} f2!<(! .^e.f.g!ff!.a!<)! |!ff![Q:3/8=116] =B6 ^c4 c2 | %114
 A2) z2 ([A^ca]2 [a^c'a']4 [^gc'^g']2 | [^f^c'^f']6 [=b^d'^g']4 [ad'g']2 | %116
 [=e^g=e']4) z2!8va(! !>![e'=e'']4- [e'e'']>[e'e''] | !>![=e'=e'']2!8va)! z2 z2 !>![^F^f]6- | %118
[Q:3/8=120] [Ff]2"^" P[^F^f]2!<(! ([^E^e][Ff] [^G^g][^A^a][=B=b][^c^c'][=d=d'][=e=e'] | %119
[Q:3/8=124] .[^f^f']2)!<)! z2 z2!ff! (!>![^G^g]4 [Gg]2 | %120
[Q:3/8=128] ^G6!<(! [^A^a][^B^b][^c^c'][^d^d'][=e=e'][^f^f'] | %121
[Q:3/8=132] .[^g^g']2)!<)! z2 z2 ([^Gg]4 [Gg]2 | %122
"^"[Q:3/8=136] P[^G^g]2!<(! [^^F^^f][Gg][^A^a][=B=b] [^c^c'][^d^d'][^e^e'][f^^f'][^g^g'][a^a']!<)! | %123
!fff![Q:3/8=140] .[=b=b']2) [^g'b']^e'^d'b [^gb]^e^d=B[^GB]^E | %124
[K:bass][Q:3/8=144] ^D=B,[^G,B,]^E,"^dim."^D,=B,, [G,B,]E,D,B,,_A,=F, | %125
!p!"^più animando"[Q:3/8=156] (_B,_A,_CF,B,A, CF,B,A,CF, |!<(! B,_A,_CF,B,A, CF,B,A,CF,!<)! | %127
"_cresc." B,_A,_CF,B,A, CF,B,A,CF, | B,_A,_CF,B,A, CF,B,A,CF, | %129
!f![Q:3/8=160] B,2)[K:treble] (B,D_CD ^CFD_A=EA | F_cGc_Ad Bd_cd^cf | %131
[Q:3/8=164] d_a=eaf_c' gc'ad'bd' |!8va(! _c'd'^c'f'd'_a' =e'a'f'_c''g'c'' | %133
[Q:3/8=168] b'_a'_c''f'b'a' =c''f'b'a'^c''f' | %134
[Q:3/8=172] b'_a'd''f'b'a'[Q:3/8=176] e''f'b'a'=e''f' | %135
"^più vivo"[Q:3/8=180]!>(! f''d''^c''=e''_e''=c'' =b'd''^c''_b'=a'=c'' | %136
 =b'_a'g'_b'a'f'!8va)! d'bab_ab)!>)! |!mp! (^fgg'd'e'=b c'g_b_ag=f) | (^fgg'd'e'=b c'g_b_ag=f) | %139
 (^fgg'd'e'=b c'g_b_ag=f) | e3 d3 c3 B3 |!mp! (^fgg'd'e'=b c'g_b_ag=f) | (^fgg'd'e'=b c'g_b_ag=f) | %143
 (^fgg'd'e'=b c'g_b_ag=f | _fed_dc_c BA=cBA_A) |!mp!!<(! (G_A=ABcB _AB_c=c_dc!<)! | %146
!<(! =AB=Bc=dc _Bc^cded!<)! |!mf!!<(! =Bc^cded =c^cde=ef!<)! |!f!!>(! gf=e_ed_d c=B_B=AB_A!>)! | %149
!mf! G2) (B,BD_c B,B"_cresc."EG=E_d | CcFA=E_d CcFA^F_e | DdG=B^Fe DdGB^G=f | %152
 =E=eA^c^Ag ^F^f=B^d^B=a- |!ff! [^c^fa^c']2)!<(! (^Bc^d^e f^ga=bc'^d'!<)! | %154
!>(! ^e'^f'^g'a'f'^c' a^f^cA^F^C)!>)! |!f!!<(! (A,^FEAA^f eaa^f'e'a'!<)! | %156
!ff!!>(! ^f'a'_e'a^fa!>)!!mf! _eA^FA_EA, |"^leggiermente" [B,EGB]2)!p!!<(! (A,B,CD E=EGFGF | %158
 cBABcd e=egfgf | c'babc'd' e'=e'g'f'g'!<)!f' | !wedge!b'2) (=abc'd' e'=e'g'f'g'f' | %161
 !wedge!b'2) z2 z2!8va(![Q:3/8=160]!>(!{/f'} f''=e''_e''d''c''b'!>)! | %162
 a'g'f'=e'_e'd'!8va)! c'bagf=e | e_d_cB_A_G FE_D_CB,[I:staff +1]_A, | %164
[Q:3/8=152] _G,F,[Q:3/8=144]E,_D,[Q:3/8=136]_C,B,,[Q:3/8=128] _A,,_G,,[Q:3/8=120]F,,E,,[Q:3/8=116]_D,,_C,, | %165
[Q:3/8=112]!ff![I:staff -1] z6 (!>![B,DG]4 [_A,DG]2 | [G,E]2) z2 (!>![EGe]2- [EGe]4 [EGd]2 | %167
 [EBc]6 [FAd]4 [EAd]2 | [DB]2) z2 z2 ([Bb]4 [=B=b]2 | %169
!ff!!<(! (5:3:5[cc']2 [b_d']2 [=ec']2 [_b=b]2 [ec']2!<)!!fff!{/[_ac']} .[a_a']2) z2 z!ff! ([_ec'] | %170
!<(! (5:3:5[=db]2 [_ac']2 [db]2 [_a=a]2 [db]2!<)!!fff!{/[gb]} .[gg']2) z2 z!ff! ([db] | %171
!<(! (5:3:5[c_a]2 [eb]2 [ca]2 [eg]2 [ca]2!<)!!fff!{/[fa]} .[ff']2) z2!ff! ([fa]2 | %172
 [fg]2{/b} !>![f_a]3 [fg]!<(! .[eg]2 .[ea]2 .[e=a]2!<)! |!fff! f6 g4 g2 | %174
 e2) z2 z2 (!>![ege']4 [ebd']2 | [ebc']6 [fad']4 [ead']2 | [db]2) z2 z2 (!>![bb']4 z [bb'] | %177
 [bb']4) z2[Q:3/8=108] (c4 d2 | %178
[Q:3/8=104] Te2 d2 e2[Q:3/8=88] g2 g2-[Q:3/8=60] (3g[Q:3/8=40]f[Q:3/8=36]e | %179
[Q:3/8=104]!f! e4) z2 z2 (3z"^con forza" (G_A (3Bdc |"^ten." B6) z2 (3z (G_A (3Bdc | %181
"^ten." B6) z2 (3z (F_A (3Bdc | B2)[Q:3/8=100] (3z (_DE (3GcB[Q:3/8=92] _A3)[Q:3/8=84] (_CEF | %183
[Q:3/8=104] G2) z2 z2 z2"^sempre"[Q:3/8=100] (3z!f! (G_A (3Bdc | .B) .b .b'2 z2 z2 (3z (G_A (3Bdc | %185
 .B) .b .b'2 z2 z2 (3z (F_A (3Bdc | B2) (3z (_DE (3GcB[Q:3/8=92] _A3)[Q:3/8=84] (_CEF | %187
[Q:3/8=100] G6-)[Q:3/8=96] (GGB[Q:3/8=92]gfe | B6-)[Q:3/8=96] B(GB[Q:3/8=92]gfe[Q:3/8=100] | %189
 d6-)[Q:3/8=96] d(GB[Q:3/8=92]bag[Q:3/8=100] | d6-) d(Bdbag[Q:3/8=100] | %191
 d"_dim."Bd[Q:3/8=96]bag dBd[Q:3/8=92]bag | %192
 d[Q:3/8=76]ac'bge[Q:3/8=80] BGC[Q:3/8=74]DF[Q:3/8=60]E | %193
!pp!"^Meno mosso""_sempre"[Q:3/8=92][I:staff +1] D,6)[I:staff -1]z(xD^FBA | G6) (d6 | c6)z(xD^FBA | %196
 G6) (=E6 | ^F6)z(xDFBA |"_cresc." G6)!f!!<(! (d6 | =e6)!<)!z!p!(x!<(!D^FAG!<)! | G6)!f! (!>!=e6 | %201
 !>!^f6 =e4) z (f | !>!^f6 =e4) z (f | !>!^f6 =e4) z (f | !>!a6[Q:3/8=88] g4)[Q:3/8=60] (a2 | %205
!ff!"^appassionato" [Bdb]2)[Q:3/8=80] z!8va(! (.[d'b'].[e'c''].[d'b'][Q:3/8=88] .[c'a'].[bg'].[a^f'].[bg'] .[a=f']!8va)!z/.[ge']/ | %206
 .[ge'].[^fd'].[ec'].[db].[ca].[Bg][Q:3/8=80]"^poco rit." (3(.[A^f].[ce].[cd])[Q:3/8=40] (5:4:5(.[=Bd]/.[_Bd]/.[Ad]/.[^Gd]/.[Ad]/[Q:3/8=36] .[Bd]/.[Ad]/.[cd]/.[Bd]/) || %207
[M:2/2]"^presto con fuoco"[Q:1/2=114] [Gd]) z!8va(! (!>![d'g'b']a) z [bd'g'](!>![bd'g']^f)!8va)! | %208
 z [gbd'](!>![gbd']^c) z [dgb](!>![dgb]B) | z [egc'](!>![egc']d ^c=c!>![egc']d | %210
 ^c=c[e^fc']d ^c=c[dfa]c | [Bdgb]2)!8va(! (!>![d'g'b']a) z [bd'g'](!>![bd'g']^f)!8va)! | %212
 z [gbd'](!>![gbd']^c) z [dgb](!>![dgb]B) | z [egc'](!>![egc']d ^c=c!>![egc']d | %214
 ^c=c[e^fc']d ^c=c[dfa]c | [dgb]2) !>!_a4 !>!G2 | !>!^F4 !>!g4 | !>!_A2 !>!_a4 !>!G2 | %218
 !>!^F4 !>!g4 | !>!=F6 !>!E2 | !>!D6 !>!C2 | x2 !>!c2 !>!c2 !>!B2 | !>!B2 !>!A2 !>!G2 !>!^F2 | %223
 .g2 !>!_a4 !>!G2 | !>!^F4 !>!g4 | !>!_A2 !>!_a4 !>!G2 | !>!^F4 !>!g4 | =F6 E2 | D6 ^C2 | %229
 x2 c2"_cresc." =B2 c2 | c2 e2 d2 e2 | e2 _g2 f2 g2 | ^f2!8va(! a2 b2 c'2 | !>!c'2 b2 !>!b2 !>!a2 | %234
 !>!a2 g2 !>!g2 d2 | z (b[d'b']b !>![_d'b']b!>![c'a']a | %236
 !>![c'a']a!>![bg']g !>![bg']g!>![^f=d']d) |!ff! z (d'!>![g'b'd'']d')!8va)! z2 (!>![gbd']d) | %238
 z2 (!>![GBd]D) z2[I:staff +1] (!>![G,B,D]D,) | %239
[I:staff -1] z2[I:staff +1] (!>![G,B,=E]D,)[I:staff -1] z2[I:staff +1] (!>![G,B,E]D,) | %240
[Q:1/2=110][I:staff -1] z2[Q:1/2=106][I:staff +1] (!>![G,B,=E]D,)[Q:1/2=102][I:staff -1] z2[Q:1/2=98][I:staff +1] (!>![G,B,E]D,) | %241
[Q:1/2=80][I:staff -1] z4[Q:1/2=104] (6:4:6(!>!G,^G,A,B,=B,C | %242
 (6:4:6^CDE=EF!<(!^F (6:4:6G^GAB=Bc!<)! | (6:4:6^cde=ef^f"_cresc." (6:4:6g^gab=bc' | %244
 (6:4:6^c'd'e'=e'f'^f'!8va(! (6:4:6g'^g'a'b'=b'^c'') | %245
[Q:1/2=60] (29:16:29e''d''f''e''[Q:1/2=80]d''c''=b'd''c''_b'a'g'^f'a'g'f'e'd'!8va)!e'd'=f'e'd'c'=bd'c'_ba | %246
 g/^f/a/g/f/e/d/e/d/=f/e/d/c/=B/d/c/[Q:1/2=60](23:16:23_B/A/G/^F/E/D/[I:staff +1]C/B,/A,/G,/^F,/E,/D,/C,/B,,/A,,/G,,/^F,,/E,,/D,,/C,,/B,,,/A,,,/ | %247
[I:staff -1] z8 | %248
 (21:16:21z/[I:staff +1] (A,,/!<(!B,,/C,/D,/=E,/^F,/G,/A,/B,/C/[I:staff -1]D/=E/^F/G/A/B/c/d/=e/!<)!^f/ | %249
[Q:1/2=40] !wedge!g) z z2"^riten."!p![I:staff +1] ([D,G,B,]3 [D,G,B,] | %250
[Q:1/2=30] [D,G,B,]4)"^accel."[Q:1/2=60]!f![I:staff -1] (6:4:6z[I:staff +1] D,G,[Q:1/2=70]A,CB, | %251
[Q:1/2=50] !wedge!B,[I:staff -1] z z2[Q:1/2=70][I:staff +1] (!>!B,,4- | %252
[I:staff -1][K:treble][I:staff +1] (28:16:28B,,/C,/D,/=E,/^F,/G,/A,/ B,/[I:staff -1]C/D/=E/^F/G/A/B/c/d/=e/^f/g/a/b/c'/d'/!8va(!=e'/^f'/g'/a'/ | %253
[Q:1/2=40] !wedge!b')!8va)! z z2!p!"^riten."[I:staff +1] ([D,G,B,D]3 [D,G,B,D] | %254
[Q:1/2=30] [D,G,B,D]4)"^accel."[Q:1/2=60][I:staff -1] (6:4:6z!ff! (DG[Q:1/2=70]Bed | %255
 .d) z[Q:1/2=30]!fff! z2!8va(!{/=e''} (3[=e'e'']2{/_e''} [_e'e'']2{/d''} [d'd'']2 | %256
[Q:1/2=28]{/^c''} (3[^c'c'']2{/=c''} [=c'c'']2{/=b'} [=bb']2[Q:1/2=100]{/_b'} (3[_bb']2 [aa']2 [_a_a']2!8va)! | %257
[Q:1/2=120] (3[gg']2 [^f^f']2 [=f=f']2[Q:1/2=140] (3[=e=e']2 [_e_e']2 [dd']2 | %258
[Q:1/2=150] (3[^c^c']2 [=c=c']2 [=B=b]2[Q:1/2=160] (3[_B_b]2 [Aa]2 [_A_a]2 |[Q:1/2=80] [Gg]4 z4 | %260
!8va(! [bd'g'b']8!8va)! |[Q:1/2=40] !fermata!G,8 |] %262
V:2
!ped! C,,4-"^pesante" C,,E,,_A,,B,, | C,_A,,E,B, C_A,[I:staff -1]EB | %2
 c"^dim."GB_A G2 ^F!ped-up![I:staff +1] z | z!ped![I:staff -1] ^FGF ^EF (3AG_E!ped-up! | %4
!ped! E>D (3FED D2!ped-up![I:staff +1] z2 | z4!ped! [E,G,C]4!ped-up! | %6
!ped! !arpeggio![D,G,E]8!ped-up! ||[M:6/4] z6!ped! .D,,2 z2 z2!ped-up! | %8
!ped! z2 (.G,,2 .G,,2)!ped-up!!ped! z2 (.B,2 .B,2)!ped-up! | %9
!ped! z2 (.A,2 .A,2)!ped-up!!ped! z2 (.D,,2 .D,,2)!ped-up! | %10
!ped! z2 (.G,,2 .G,,2)!ped-up!!ped! z2 (.A,,2 .A,,2)!ped-up! | %11
!ped! z2 (.D,,2 .D,,2)!ped-up!!ped! z2 (.D,2 .D,2)!ped-up! | %12
!ped! z2 (.G,,2 .G,,2)!ped-up!!ped! z2 (.=E2 .E2)!ped-up! | %13
!ped! z2 (.F2 .F2)!ped-up!!ped! z2 (.F,,2 .F,,2)!ped-up! | %14
!ped! z2 (.B,,2 .B,,2)!ped-up!!ped! z2 (.B,2 .B,2)!ped-up! | %15
!ped! z2 (.A,2 .A,2)!ped-up!!ped! z2 (.D,,2 .D,,2)!ped-up! | %16
!ped! z2 (.G,,2 .G,,2)!ped-up!!ped! z2 (.B,2 .B,2)!ped-up! | %17
!ped! z2 (.A,2 .A,2)!ped-up!!ped! z2 (.D,,2 .D,,2)!ped-up! | %18
!ped! z2 (.G,,2 .G,,2)!ped-up!!ped! z2 (.A,,2 .A,,2)!ped-up! | %19
!ped! z2 (.D,,2 .D,,2)!ped-up!!ped! z2 (.D,2 .D,2)!ped-up! | %20
!ped! z2 (.G,2 .G,2)!ped-up!!ped! z2 (.G,,2 .G,,2)!ped-up! | %21
!ped! z2 .C,4!ped-up!!ped! z2 .D,4!ped-up! |!ped! z2 .E,4!ped-up!!ped! z2 .D,4!ped-up! | %23
!ped! (!>!=B,,C,D,C, G,2)!ped-up!!ped! (!>!^C,D,E,D, G,2)!ped-up! | %24
!ped! (!>!D,E,F,E, G,2)!ped!({^D,=E,)} TE,6!ped-up!({^D,E,)} | %25
!ped! F,6-!ped-up!!ped! F,2 ([=E,,=E,]2 [F,,F,]2!ped-up! | %26
!ped! [^F,,^F,]6-)!ped-up!!ped! [F,,F,]2 ([^E,,^E,]2 [F,,F,]2!ped-up! |!ped! [G,,G,]12)!ped-up! | %28
!ped! ([D,,D,]12!ped-up! |!ped! [E,,E,]12)!ped-up! | %30
!ped! ([C,,C,]6!ped-up!!ped! [D,,D,]6)!ped-up! | %31
!ped! x/ [^C,,^C,]2 (.[=E,A,=E]2 .[E,A,E]2 .[E,A,E]2 .[E,A,E]2 .[E,A,E]2)!ped-up! | %32
!ped! [C,,C,]2 (.[F,A,_EF]2 .[F,A,EF]2 .[F,A,EF]2 .[F,A,EF]2 .[F,A,EF]2)!ped-up! | %33
!ped! [B,,,B,,]2 [D,F,B,]2 [F,B,D]2!ped-up!!ped! E,,2 [E,G,C]2 [G,CE]2!ped-up! | %34
!ped! (D,,2 [G,B,E]2 [B,D]4!ped-up!!ped! [B,^C]2 [A,=C]2)!ped-up! | %35
!ped! .G,,2 (F2 E2)!ped-up!!ped! .^F,,2 (E2 D2)!ped-up! | %36
!ped! .G,,2 (=F2 E2)!ped-up!!ped! .=F,,2 (E2 D2)!ped-up! | %37
!ped! .E,,2 (D2 C2)!ped-up!!ped! .C,,2 (B,2 A,2)!ped-up! | %38
!ped! .D,,2 (=G,2 ^F,2)!ped-up!!ped! .D,,2 (A,2 D,2)!ped-up! | %39
!ped! .[G,,G,]2 (=F2 [B,E]2)!ped-up!!ped! .[^F,,^F,]2 (E2 [A,D]2)!ped-up! | %40
!ped! .[G,,G,]2 (=F2 [B,E]2)!ped-up!!ped! .[=F,,=F,]2 (E2 [_A,=B,D]2)!ped-up! | %41
!ped! .[E,,E,]2 (=D2 [G,C]2)!ped-up!!ped! .[C,,C,]2 (_B,2 [E,A,]2)!ped-up! | %42
!ped! .D,,2 ([A,,G,]2 [C,^F,]2)!ped-up!!ped! .D,,2 ([A,,E,]2 [=C,D,-]2)!ped-up! | %43
!ped! D,2 G,,2 z2!ped-up!!ped! D,2 (E,D,) z2!ped-up! |!ped! z2 (!>!A,4 A,2!ped-up!!ped! G,2 E2 | %45
 .D2)!ped-up!!ped! G,4 D2!ped-up!!ped! ED z2!ped-up! | %46
[K:treble]!ped! z2 (!>!A4- A2!ped-up!!ped! G2 e2 | %47
 .[Gd]2)!ped-up!!ped! z2 z2!ped-up!!ped! (!>![E^FAe]2 d2 D2!ped-up! | %48
!ped! .G,2) (D2 d2!ped-up!!ped! !>![E^FAe]2 d2 D2!ped-up! | %49
!ped! .G,2) z2[K:bass] (D,2!ped-up!!ped! !>![E,^F,A,E]2 D2 D,2!ped-up! | %50
!ped! .G,,2) (D,2 D2!ped-up!!ped! !>![E,^F,A,E]2 D2 D,2!ped-up! | %51
!ped! (G,,2) [D,B,]2) z2!ped-up!!ped! ([^C,,^C,]2 [D,,D,]2) z2!ped-up! | %52
!ped! ([G,,,G,,]2 D,2) z2!ped-up!!ped! (^C,,2 D,,2) z2!ped-up! | %53
!ped! [G,,,G,,]2 z2 (=C,,2!ped-up!!ped! [G,,,G,,]2) z2 C,,2!ped-up! | %54
!ped! [G,,,G,,]2 z2 (C,,2!ped-up!!ped! [G,,,G,,]2) z2 (C,,2!ped-up! | %55
!ped! [G,,,G,,]6) z2 (.[DG]2 .[G,D]2 | [DG]4) z2 z4 (D,,2!ped-up! | %57
!ped! [G,,,G,,]6-) [G,,,G,,]4 (D,,2!ped-up! |!ped! [^F,,,^F,,]6-) [F,,,F,,]4 (D,,2!ped-up! | %59
!ped! [G,,,G,,]6) z2 (.[D,G,]2 .[G,,D,]2 | [D,G,]4) z2 z4 (D,,2!ped-up! | %61
!ped! [_G,,,_G,,]6-) [G,,,G,,]4 x2!ped-up! |!ped! (F,,6- F,,4 =G,,2!ped-up! | %63
!ped! A,,4) z2 z2 (.[CF]2 .[F,C]2 | [CF]6- [CF]4) ([F,C]2 |"^riten." [CF]6- [CF]4 [F,C]2 | %66
 [CF]4 [F,C]2 [CF]2 [F,C]2) z2!ped-up! |!ped! (.B,,,2 B,,2 _A,2!ped-up!!ped! F,2 C2 B,2)!ped-up! | %68
!ped! (E,,2 B,,2 E,2 G,2 B,2 E2)!ped-up! |!ped! (C2 E2 F,2!ped-up!!ped! E2 G2 F2)!ped-up! | %70
!ped! (B,,2 F,2 B,2[K:treble] D2 F2 B2)!ped-up! | %71
!ped! (C2 E2 F,2!ped-up!!ped! B,2 D2 _A2)!ped-up! | %72
[K:bass]!ped! (B,2 D2 E,2!ped-up!!ped! _A,2 C2 G2)!ped-up! | %73
!ped! (_A,2 C2 D,2!ped-up!!ped! G,2 =B,2 F2)!ped-up! | %74
!ped! (G,2 C2 C,2!ped-up!!ped! F,2 =A,2 E2)!ped!!ped-up! | %75
!ped! (F,2 _A,2!ped-up!!ped! B,,2!ped-up! A,2 C2 B,2) |!ped! (E,,2 B,,2 E,2 G,2 B,2 E2)!ped-up! | %77
!ped! (C2 E2!ped-up!!ped! F,2 E2 G2 F2)!ped-up! |!ped! (B,,2 F,2 B,2[K:treble] D2 F2 B2)!ped-up! | %79
[K:bass]!ped! (C,,2 =E2 B,2!ped-up!!ped! G,2 E2 B,2)!ped-up! | %80
!ped! (F,2 _E2 A,2)!ped-up!!ped! (B,,2 D2 _A,2)!ped-up! | %81
!ped! (E,,B,,G,E,B,G, E2)"^sempre" z2!pp! z2!ped-up! |!ped! (E,,B,,G,E,B,G, E2) z2 z2!ped-up! | %83
!ped! (E,,B,,_A,F,B,A, D2) z2 z2!ped-up! | %84
!ped! (E,,B,, G,2) z2!ped-up!!ped! (E,,_C, _A,2) z2!ped-up! | %85
!ped! (E,,B,,G,E,B,G, E2) z2 z2!ped-up! |!ped! (E,,B,,G,E,B,G, E2) z2 z2!ped-up! | %87
!ped! (E,,B,,_A,F,B,A, D2) z2 z2!ped-up! | %88
!ped! (E,,B,, G,2) z2!ped-up!!ped! (E,,_C, _A,2) z2!ped-up! | %89
!ped! (E,,B,,G,E,B,G,"^sempre più" E2) z2 z2!ped-up! |!ped! (G,,D,B,G,DB, G2) z2 z2!ped-up! | %91
!ped! A,,F,[K:treble]D!ped-up!!ped!B,FD B2"^rallentando" z2 z2!ped-up! | %92
[K:bass]!ped! D,A,[K:treble]FDAF d z z2 z2!ped-up! | %93
[K:bass]!ped! z2 (.=E,,2 .E,,2) z2 (.E,,2 .E,,2)!ped-up! |!ped! x2 x2 x2 (=E6!ped-up! | %95
!ped! D6)!ped-up!!ped! z6!ped-up! |!ped! z6!ped-up!!ped! (!>!^F,6!ped-up! |!ped! ^G,6) z6!ped-up! | %98
!ped! z6 (=E6!ped-up! | ^F6) z6!ped! |!ped! z6 (^F6!ped-up! | %101
!ped! !>!^G6!ped-up!!ped! ^F4) z (G!ped-up! |!ped! !>!^G6!ped-up!!ped! ^F4) z (G!ped-up! | %103
!ped! !>!^G6!ped-up!!ped! ^F4) z (G!ped-up! |!ped! !>!A6!ped-up!!ped! ^G4 A2)!ped-up! | %105
!ped! .[=E,,,=E,,]2 ([=E,^G,D]2 [G,D=E]2 [=B,D^G]2 [G,DE]2 [E,G,D]2)!ped-up! | %106
!ped! .[A,,,A,,]2 ([=E,^C]2 [A,=E]2 [CA]2 [A,E]2 [E,C]2)!ped-up! | %107
!ped! .[=B,,,=B,,]2 ([^F,=B,]2 [A,^D]2 [B,^F]2 [A,D]2 [F,B,]2)!ped-up! | %108
!ped! .[=E,,=E,]2 (=B,2 =E2 ^G2 E2 B,2)!ped-up! |!ped! ^F,2 (D2 A2)!ped-up!!ped! =B,,2 D4!ped-up! | %110
!ped! =E,2 (^C2 ^G2)!ped-up!!ped! A,,2 C4!ped-up! | %111
!ped! .[D,,D,]2 ([D,=B,]2 [^F,^F]2)!ped-up!!ped! .[^C,,^C,]2 ([^G,^C]2 [B,^E]2)!ped-up! | %112
!ped! ^F,,2 (^C2 [A,^F]2)!ped-up!!ped! =B,,2 (=B,2 [A,^D]2)!ped-up! | %113
!ped! .[=E,,,=E,,]2 ([=B,,^G,]2 [=E,=B,]2 [G,=D]2 [E,B,]2 [B,,G,]2)!ped-up! | %114
!ped! .[A,,,A,,]2 ([=E,^C]2 [A,=E]2 [CA]2 [A,E]2 [E,C]2)!ped-up! | %115
!ped! .[=B,,,=B,,]2 ([^F,=B,]2 [A,^D]2 [B,^F]2 [A,D]2 [F,B,]2)!ped-up! | %116
!ped! .[=E,,=E,]2 ([E,=B,]2 [^G,=E]2 [B,^G]2 [G,E]2 [E,B,]2)!ped-up! | %117
!ped! .[=E,,=E,]2 ([E,^A,]2 [^F,^C]2 [A,=E]2 [F,C]2 [E,A,]2)!ped-up! | %118
!ped! .[=E,,,=E,,]2 ([=E,^A,]2 [^F,^C]2!ped-up!!ped! [A,=E]2 [F,C]2 [E,A,]2)!ped-up! | %119
!ped! .[=E,,=E,]2 ([E,^B,]2 [^G,^D]2 [B,^F]2 [G,D]2 [E,B,]2)!ped-up! | %120
!ff!!ped! .[=E,,,=E,,]2 ([=E,^B,]2 [^G,^D]2 [B,^F]2 [G,D]2 [E,B,]2)!ped-up! | %121
!ped! .[=E,,=E,]2 ([E,^C]2 [^G,=E]2)!ped-up!!ped! .[^D,,^D,]2 ([D,=B,]2 [G,^D]2)!ped-up! | %122
!ped! .[^C,,^C,]2 ([C,^G,]2 [=E,^C]2)!ped-up!!ped! .[^G,,,^G,,]2 ([=B,,G,]2 [^D,=B,]2)!ped-up! | %123
!ped! .[^E,,,^E,,]2 z2 z2 !arpeggio!!>![^E,=B,^D^G]6 | z12!ped-up! | %125
!ped! (_B,,,2 D,2) z2 (B,,,2 D,2) z2!ped-up! |!ped! (B,,,2 D,2) z2 (B,,,2 D,2) z2!ped-up! | %127
!ped! (!>!D,2 F2) z2 (!>!D,2 F2) z2!ped-up! |!ped! (!>!D,2 F2) z2 (!>!D,2 F2) z2!ped-up! | %129
!ped! B,,,2 z2 z2!ped-up!!ped! [B,,F,_A,]2 z2 z2!ped-up! | %130
!ped! [F,_A,D]2 z2 z2!ped-up!!ped! [A,DF]2 z2 z2!ped-up! | %131
[K:treble]!ped! [B,F_A]2 z2 z2!ped-up!!ped! [FAd]2 z2 z2!ped-up! | %132
!ped! [_Adf]2 z2 z2!ped-up!!ped! [Bf_a]2 z2 z2!ped-up! |!ped! [f_ad']12- | %134
 (([fad']6!ped-up!!ped! [e_ac']6))!ped-up! |!ped! (([e_a-c']6!ped-up!!ped! [da_b]2)) z4!ped-up! | %136
!ped! z12!ped-up! | %137
[K:bass]"^scherzando"!ped! .E,2[K:treble] (c2 B2)!ped-up![K:bass]!ped! .B,,2[K:treble] [D_A]4!ped-up! | %138
!ped! .E,2[K:treble] (c2 B2)!ped-up![K:bass]!ped! .B,,2[K:treble] [D_A]4!ped-up! | %139
!ped! .E,2[K:treble] (_A2 G2)!ped-up![K:bass]!ped! ._A,,2[K:treble] (G2!ped-up! F2) | %140
[K:bass]!ped! B,,2 (E2 D2)!ped-up!!ped! B,,2 (C2 B,2)!ped-up! | %141
!ped! .E,2[K:treble] (c2 B2)!ped-up![K:bass]!ped! .B,,2[K:treble] [D_A]4!ped-up! | %142
!ped! .E,2[K:treble] (c2 B2)!ped-up![K:bass]!ped! .B,,2[K:treble] [D_A]4!ped-up! | %143
!ped! .E,2[K:treble] (_A2 G2)!ped-up![K:bass]!ped! ._A,,2[K:treble] (G2!ped-up! F2) | %144
[K:bass]!ped! B,,2 z2 [F,_A,D]2!ped-up! [F,A,D]2 [F,A,D]2 [F,A,D]2 | %145
!ped! ([E,B,_D]2 z [E,,E,] [E,,E,]2) [_A,C]2!ped-up! [G,,G,]2 [_G,,_G,]2 | %146
!ped! ([=A,E]2 z [F,,F,] [F,,F,]2) [B,=D]2!ped-up! [A,,A,]2 [_A,,_A,]2 | %147
!ped! ([=B,F]2 z [G,,G,] [G,,G,]2) ([CE]2!ped-up! !>![C,,C,]2) z2 | %148
!ped! ([_A,E]2 !>!_C,2)!ped-up! z2!ped! ([A,D]2 !>!B,,2)!ped-up! z2 | %149
 [E,,E,]2!ped! ([G,,G,]2 [_A,,_A,]2 [G,,G,]2 [E,,E,]2 [B,,B,]2 | %150
 [=A,,A,]2)!ped-up!!ped! ([F,,F,]2 [B,,B,]2 [A,,A,]2 [F,,F,]2 [C,C]2 | %151
 [=B,,=B,]2)!ped-up!!ped! ([G,,G,]2 [C,C]2 [B,,B,]2 [G,,G,]2 [D,D]2 | %152
 [^C,^C]2)!ped-up!!ped! ([A,,A,]2 [=E,=E]2 [^D,^D]2)!ped-up!!ped! ([=B,,=B,]2 [=D,=D]2!ped-up! | %153
!ped! [^C,,^C,]2)[K:treble] z [A,^C^FA] .[A,CFA]2 .[A,CFA]2 .[A,CFA]2 .[A,CFA]2 | %154
 [A,^C^FA]6 z4[K:bass] !>![^C,,^C,]2!ped-up! | %155
!ped! !>![^B,,,^B,,]2 z ([^F,A,^D] .[F,A,D]2 .[F,A,D]2) z2 !>![=C,,=C,]2!ped-up! | %156
!ped! !>![_C,,_C,]2 z ([^F,A,_E] .[F,A,E]2 .[F,A,E]2) z2 (!>![=C,,=C,]2!ped-up! | %157
 [B,,,B,,]2) z2 z2 z2!ped! ([A,C_E]2 [_A,B,D]2 | %158
 [G,B,E]2)!ped-up! z2 z2 z2[K:treble]!ped! ([=Ac_e]2 [_ABd]2 | %159
 [GBe]2)!ped-up! z2 z2 z2!ped! ([ac'_e']2 [_abd']2 | %160
 [gbe']2)!ped-up! z2 z2 z2!ped! ([ac'_e']2 [_abd']2 | [gbe']2)!ped-up! z2 z2!ped! [CEF=A]2 z2 z2 | %162
 z12!ped-up!!ped! |[K:bass]!ped! !arpeggio![_C,E,_A,E]2 z2 z2!ped-up!!ped! z6!ped-up! | %164
!ped! !>!_C,,2 z2 z2!ped-up!!ped! z6!ped-up! | %165
!ped! (B,,,F,,B,,=D,B,,F,,) (B,,,F,,B,,F,B,,F,,)!ped-up! | %166
!ped! (E,,B,,E,G,E,B,,) (E,,C,E,B,E,C,)!ped-up! | %167
!ped! (F,,C,E,B,E,C,)!ped-up!!ped! (F,,C,E,A,E,C,)!ped-up! | %168
!ped! (B,,F,B,DB,F,) (B,,F,B,F_B,F,)!ped-up! | %169
!ped! (B,,G,C=ECG,)!ped-up!!ped! (B,,_A,CFCA,)!ped-up! | %170
!ped! (B,,F,_A,DA,F,)!ped-up!!ped! (B,,E,G,EG,E,)!ped-up! | %171
!ped! (B,,E,_A,CA,E,)!ped-up!!ped! (B,,F,A,DA,F,)!ped-up! | %172
!ped! (=B,,F,G,DG,F,)!ped-up!!ped! (C,E,G,E_G,E,)!ped-up! | %173
!ped! (D,_A,B,FB,A,)!ped-up!!ped! (B,,F,B,DB,F,)!ped-up! | %174
!ped! (E,,B,,E,G,B,E GEB,G,E,B,,)!ped-up! | %175
!ped! (F,,C,E,B,E,C,)!ped-up!!ped! (F,,C,E,A,E,C,)!ped-up! | %176
!ped! (B,,,B,,F,B,DF[K:treble] dBFD[K:bass]B,F,)!ped-up! | %177
!ped! (B,,=E,G,CG,E,) (B,,E,G,CG,E,)!ped-up! | %178
!ped! (B,,F,A,CA,F,)!ped-up!!ped! (B,,F,_A,DA,F,)!ped-up! | %179
!ped! (E,,B,,E,G,E,B,, E,,B,,E,B,E,B,,!ped-up! |!ped! E,,B,,E,G,E,B,, E,,B,,E,B,E,B,,)!ped-up! | %181
!ped! (E,,B,,D,_A,D,B,, E,,B,,D,B,D,B,,!ped-up! |!ped! E,,B,,E,G,E,B,,) (E,,_C,E,_A,E,C,)!ped-up! | %183
!ped! (E,,B,,E,G,E,B,, E,,B,,E,B,E,B,,!ped-up! |!ped! E,,B,,E,G,E,B,, E,,B,,E,B,E,B,,)!ped-up! | %185
!ped! (E,,B,,D,_A,D,B,, E,,B,,D,B,D,B,,!ped-up! |!ped! E,,B,,E,G,E,B,,) (E,,_C,E,_A,E,C,)!ped-up! | %187
!ped! (E,,B,,E,G,E,B,, E,,B,,E,B,E,B,,!ped-up! |!ped! E,,B,,E,G,E,B,, E,,B,,E,B,E,B,,)!ped-up! | %189
!ped! (G,,D,G,B,DB, GDB,G,D,G,,)!ped-up! | %190
!ped! (G,,,G,,D,G,B,D[K:treble] BGD[K:bass]B,G,D,)!ped-up! | %191
!ped! (G,,D, D2) z2!ped-up!!ped! z6!ped-up! | z12 | %193
!ped! z2 (.D,,2 .D,,2)"^sotto voce" z2 (.D,,2 .D,,2)!ped-up! |!ped! x2 x2 x2 (D6!ped-up! | %195
!ped! C6)!ped-up!!ped! z6!ped-up! |!ped! z12!ped!!ped-up! |!ped! z12!ped-up!!ped!!ped-up! | %198
!ped! z6 (D6 | =E6)!ped-up!!ped! z6!ped-up! |!ped! z6 (!>!=E6!ped-up! | %201
!ped! !>!^F6!ped-up!!ped! =E4) z (F!ped-up! |!ped! !>!^F6!ped-up!!ped! =E4) z (F!ped-up! | %203
!ped! !>!^F6!ped-up!!ped! =E4) z (F!ped-up! |!ped! !>!A6!ped-up!!ped! G4) A2!ped-up! | %205
"^il più forte possibile"!ped! [D,,,D,,]2 ([D,B,]2 [G,D]2 [B,G]2 [G,D]2 [D,B,]2)!ped-up! | %206
!ped! [D,,,D,,]2 [D,^F,C]2 ([F,CD]2 [C^F]2!ped-up!!ped! [F,CD]2!ped-up!!ped! [D,F,C]2!ped-up! || %207
[M:2/2]!ped! [G,,,G,,]2) z2 [B,DG]2 .B,,2!ped-up! | %208
!ped! [B,DG]2 .D,2!ped-up!!ped! [B,DG]2 .G,2!ped-up! | [A,CEG]2!ped! .A,,2 [=CEG]2 .A,2!ped-up! | %210
 [=CD^F]2!ped! .D,2 [CDF]2 .A,2!ped-up! |!ped! [G,DG]2 .G,,2 [B,DG]2 .B,,2!ped-up! | %212
!ped! [B,DG]2 .D,2!ped-up!!ped! [B,DG]2 .G,2!ped-up! | [A,CEG]2!ped! .A,,2 [=CEG]2 .A,2!ped-up! | %214
 [=CD^F]2!ped! .D,2 [CDF]2 .A,2!ped-up! | [DG]6!ped! [_A,E]2!ped-up! | %216
!ped! .D,2 [A,CD]2!ped-up!!ped! .G,,2 [G,B,D]2!ped-up! |!ped! z2 [_A,E]4 [A,E]2!ped-up! | %218
!ped! .D,2 [A,CD]2!ped-up!!ped! .G,,2 [G,B,D]2!ped-up! | %219
!ped! z2 [F,_A,D]2!ped-up!!ped! z2 [E,A,C]2!ped-up! |!ped! z2 [F,_A,=B,]2 z2!ped-up! A,2 | %221
!ped! ^F,,2 [^F,CE]2 [G,_B,D]2!ped-up! G,,2 |!ped! C,2 [A,EG]2 z2!ped-up! [A,CD]2 | %223
 [B,D]2!ped! x2 x2 [_A,E]2!ped-up! |!ped! .D,2 [A,CD]2!ped-up!!ped! .G,,2 [G,B,D]2!ped-up! | %225
!ped! z2 [_A,E]6!ped-up! |!ped! .D,2 [A,CD]2!ped-up!!ped! .G,,2 [G,B,D]2!ped-up! | %227
!ped! [=B,,,=B,,]2 [F,_A,D]2!ped-up!!ped! [C,,C,]2 [E,A,C]2!ped-up! | %228
!ped! [D,,D,]2 [^F,A,]2 [=E,,=E,]2!ped-up! G,2 |!ped! [^F,,^F,]2 [F,CE]2 [G,CE]2!ped-up! [G,,G,]2 | %230
!ped! [_A,,_A,]2 [A,E_G]2 [=A,EG]2!ped-up! [=A,,A,]2 | %231
!ped! [B,,B,]2 [B,E_G]2 [_CE__B]2!ped-up! [_C,C]2 | %232
!ped! [=C,=C]2[K:treble] !>![CD^FA]4 [CDFA]2!ped-up! | %233
[K:bass]!ped! [B,,B,]2[K:treble] [G,DG]2!ped-up![K:bass]!ped! [C,C]2[K:treble] [A,EG]2!ped-up! | %234
[K:bass]!ped! [D,D]2[K:treble] [DGB]2!ped-up![K:bass]!ped! [C,C]2[K:treble] [CD^FA]2!ped-up! | %235
[K:bass]!ped! [B,,B,]2[K:treble] [G,DG]2!ped-up![K:bass]!ped! [C,C]2[K:treble] [A,EG]2!ped-up! | %236
[K:bass]!ped! .[D,D]2[K:treble] [DGB]2!ped-up![K:bass]!ped! .[C,C]2[K:treble] [CD^FA]2!ped-up! | %237
[K:bass]!ped! [B,,B,]2 z2[K:treble] (!>![gbd']d) z2 | %238
 ([GBd]D) z2[K:bass] (!>![G,B,D]D,) z2!ped-up! | %239
!ped! (!>![^F,,,^F,,][G,,,G,,]) z2 (!>![^C,,^C,][D,,D,]) z2!ped-up! | %240
!ped! (!>![^F,,,^F,,][G,,,G,,]) z2 (!>![^C,,^C,][D,,D,]) z2!ped-up! |!ped! !>![D,,,D,,]4 z4 | %242
 z4 !>![G,_B,^C=E]3 [G,B,CE] | [G,B,^C^F]4 [G,B,C=E]3 [G,B,CE] | [G,B,^C^F]4 [G,B,C=E]4!ped-up! | %245
!ped! !arpeggio![D,A,=CG]8-!ped-up! ([D,-A,-C-G]8!ped-up! |!ped! !>![D,A,C^F]8) z8!ped-up! | %247
!ped! !>!G,,,8- | %248
!<(! (21:16:21G,,,/A,,,/B,,,/C,,/D,,/=E,,/^F,,/G,,/A,,/B,,/C,/D,/=E,/^F,/G,/A,/B,/C/[I:staff -1]D/=E/!<)!^F/ | %249
 G!ped-up![I:staff +1] z z2!ped! [G,,,G,,]3 [G,,,G,,] | %250
 [G,,,G,,]4!ped-up! (6:4:6z!ped! D,,G,,A,,C,B,, | !wedge!B,,!ped-up! z z2!ped! !>!G,,,4- | %252
 (28:16:28G,,,/A,,,/B,,,/C,,/D,,/=E,,/^F,,/ G,,/A,,/B,,/C,/D,/=E,/^F,/G,/A,/B,/C/D/[K:treble]=E/^F/G/A/B/c/d/=e/^f/ | %253
 !wedge!g!ped-up! z z2[K:bass]!ped! [G,,,G,,]3 [G,,,G,,] | %254
 [G,,,G,,]4!ped-up! (6:4:6z!ped! (D,G,B,ED | %255
 .D)!ped-up! z z2"^poco ritenuto"{/B,,,} (3[B,,,B,,]2{/=B,,,} [B,,,=B,,]2{/C,,} [C,,C,]2 | %256
{/^C,,} (3[C,,^C,]2{/D,,} [D,,D,]2{/^D,,} [D,,^D,]2"^acce"{/=E,,} (3[E,,=E,]2 [F,,F,]2"^le" [^F,,^F,]2 | %257
"^ran" (3[G,,G,]2 [^F,,^F,]2 [=F,,=F,]2 (3[=E,,=E,]2 [_E,,_E,]2 [D,,D,]2 | %258
 (3[^C,,^C,]2 [=C,,=C,]2 [=B,,,=B,,]2 (3[_B,,,_B,,]2 [A,,,A,,]2"^do" [_A,,,_A,,]2 | %259
!ped! [G,,,G,,]4 z4 | [G,DG]8 | !fermata![G,,,G,,]8!ped-up! |] %262
V:3
 x8 | x8 | x8 | x8 | x8 | x8 | x8 ||[M:6/4] x6 x !>!C4 x | %8
 z2 (.[B,D]2 .[B,D]2) z2 (.[DG]2 .[DG]2) | z2 (.[CEG]2 .[CEG]2) x !>!C4 x | %10
 z2 (.[B,D]2 .[B,D]2) z2 (.[G,A,^C]2 .[G,A,C]2) | z2 (.[^F,A,D]2 .[F,A,D]2) x !>!C4 x | %12
 z2 (.[B,D]2 .[B,D]2) z2 (.[GB_d]2 .[GBd]2) | z2 (.[Bc]2 .[Bc]2) !>!E6 | %14
 z2 (.[EFA]2 .[EFA]2) z2 (.[DFB]2 .[DFB]2) | z2 (.[EG]2 .[EG]2) x !>!C4 x | %16
 z2 (.[B,D]2 .[B,D]2) z2 (.[DG]2 .[DG]2) | z2 (.[CEG]2 .[CEG]2) x !>!C4 x | %18
 z2 (.[B,D]2 .[B,D]2) z2 (.[G,A,^C]2 .[G,A,C]2) | z2 (.[^F,A,D]2 .[F,A,D]2) x !>!C4 x | %20
 z2 (.[=B,D=F]2 .[B,DF]2) z2 (.[G=Bd]2 .[GBd]2) | z2 (.[Gce]2 .[Gce]2) z2 (.[DG]2 .[DG]2) | %22
 z2 (.[CG]2 .[CG]2) z2 (.[B,D]2 .[B,D]2) | z2 (.[Gce]2 .[Gce]2) z2 (.[DG]2 .[DG]2) | %24
 z2 (.[CG]2 .[CG]2) z2 (.[B,^C]2 .[B,C]2) | z2 (.[B,D]2 .[B,D]2) z2 (.[DFB]2 .[DFB]2) | %26
 [E=A]2 [EA]2 [EA]2 [EA]2 [EA]2 [EA]2 | z2 [EB]2 [EB]2 [DB]2 [DB]2 [DB]2 | %28
 [C^F]2 [CF]2 [CF]2 [CF]2 [CF]2 [CF]2 | z2!>(! [C=G]2 [CG]2 [B,G]2 [B,G]2 [B,G]2!>)! | %30
 [EG]2 [EG]2 [EG]2 [D^F]2 [DF]2 [DF]2 | x/ !arpeggio![A,=E]2 x2 x8 | x12 | x12 | x12 | x12 | x12 | %37
 x12 | x8 ED^C=C | x12 | x12 | x12 | x12 | x12 | x12 | x12 | x12 | x3!8va(! x9 | x12 | x12!8va)! | %50
 x12 | x12 | x6[K:bass] x6 | x12 | x12 |[K:treble] x9!8va(! x3 | x4!8va)! x8 | x12 | x12 | %59
 x9!8va(! x3 | x4!8va)! x8 | x12 | x12 | x10!8va(! x2 | x2!8va)! x10 | x12 | x12 | C6 D6 | %68
 E6 E2 x4 | G6 A6 | B6 x6 | x12 | x12 | x12 | x8 x7/2 x/ | !arpeggio!C6 D6 | E6 E2 x4 | G6 A6 | %78
 B6 x6 | x12 | x12 | x12 | x12 | x12 | x2 (3:2:2x !>!x2 x4 x !>!_C2 x | x12 | x12 | x12 | %88
 x2 (3:2:2x !>!x2 x4 x !>!_C2 x | x12 | x12 | x12 | x12 | x6 x !>!D4 x | %94
 z2 (.[C=E]2 .[CE]2) z2 (.A2 .A2) | z2 (.[FA]2 .[FA]2) x !>!D4 x | %96
 z2 (.[C=E]2 .[CE]2) z2 (.[A,CE]2 .[A,CE]2) | z2 (.[=B,=E]2 .[B,E]2) x !>!D4 x | %98
 z2 (.[C=E]2!<(! .[CE]2) z2 (.[Ac]2!<)!"_cresc." .[Ac]2) | z2 (.[=EAc]2 .[EAc]2) x C4 x | %100
 z2 (.[C=E]2 .[CE]2) z2 (.[EAc]2 .[EAc]2) | z2 (.[Ac^d]2 .[Acd]2) z2 [Acd]2 z2 | %102
 z2 (.[Ac^d]2 .[Acd]2) z2 [Acd]2 z2 | z2 (.[Ac^d]2 .[Acd]2) z2 [Acd]2 z2 | %104
 z2 (.[c^d^f]2 .[cdf]2) z2!<(! (.[cdf]2 .[cdf]2)!<)! | x12 | x12 | x12 | x12 | a12 | a12 | x12 | %112
 [^c^f]6 [A=B^d]2 [ABd][ABd][ABd][ABd] | [D=E^G]6 [EG=e]4 [EGe]2 | [A,^CA]2 x2 x8 | x12 | %116
 x6!8va(! x6 | x2!8va)! x10 | x2 x/x/x x8 | x12 |x^g=ag[^^F^^f][^Gg] x6 | x12 | x/x/x x2 x8 | x12 | %124
[K:bass] x12 | x12 | x12 | x12 | x12 | x2[K:treble] x10 | x12 | x12 |!8va(! x12 | x12 | x12 | x12 | %136
 x6!8va)! x6 | x12 | x12 | x12 |x_afxafxafxaf | x12 | x12 | x12 | x12 | x12 | x12 | x12 | x12 | %149
 x6 x2 E2 =E2 | x2 F2 =E2 x2 F2 ^F2 | x2 G2 ^F2 x2 G2 ^G2 | x2 A2 ^A2 x2 x2 ^B2 | x12 | x12 | x12 | %156
 x12 | x12 | x12 | x12 | x12 | x4 x!ff!!8va(! x x x x4 | x6!8va)! x6 | x12 | x12 | x12 | x12 | %167
 x12 | x12 | x12 | x12 | x12 | x12 | [_ABb]6 [ABb]4 [ABb]2 | [Ge]2 x2 x2 x6 | x12 | x12 | %177
 x6 .C2 z2 .D2 | .E2 .D2 .E2 (4:3:4.G2 ._A2 .B2 .A2 | [Ge]4 x2 x6 | x12 | x12 | %182
 x2 (3:2:2x _D2 x2 x3 x3 | x12 | x12 | x12 | x2 (3:2:2x _D2 x2 x3 x3 | x12 | x12 | x12 | x12 | %191
 x12 | x12 | x6 x C4 x | z2 (.[B,D]2 .[B,D]2) z2 (.G2 .G2) | z2 (.[EG]2 .[EG]2) x C4 x | %196
 z2 (.[B,D]2 .[B,D]2) z2 (.[G,B,^C]2 .[G,B,C]2) | z2 (.[^F,A,D]2 .[F,A,D]2) x C4 x | %198
 z2 (.[B,D]2 .[B,D]2) z2 (.[GB]2 .[GB]2) | z2 (.[GB]2 .[GB]2) x B,4 x | %200
 z2 (.[B,^C=E]2 .[B,CE]2) z2 (.[GB^c]2 .[GBc]2) | z2 (.[GB^c]2 .[GBc]2) z2 [GBc]2 z2 | %202
 z2"_cresc." (.[GB^c]2 .[GBc]2) z2 [GBc]2 z2 | z2 (.[GB^c]2 .[GBc]2) z2 [GBc]2 z2 | %204
 z2 (.[B^c=e]2 .[Bce]2) z2 [Bce]2 z2 | x3!8va(! x8!8va)! x | x12 ||[M:2/2] x2!8va(! x6!8va)! | x8 | %209
 x8 | x8 | x2!8va(! x6!8va)! | x8 | x8 | x8 | B2 _a[e'_a'] a[e_a]G[eg] | %216
 ^F[=A^f]f[=a^f'] g[bg']g[Bg] | _A[e_a]a[e'_a'] a[ea]G[eg] | ^F[=A^f]f[=a^f'] g[bg']g[Bg] | %219
 (F[_A=f]f[_af'] f[Ae]E[Ae]) | (D[_Ad]d[_ad'] d[Ac]C[Ac]) | C[Ec]c[ec'] c[ec']B[db] | %222
 B[db]A[ca] G[Bg]^F[A^f] | [GB]2 _a[e'_a'] a[ea]G[eg] | ^F[=A^f]f[=a^f'] g[bg']g[Bg] | %225
 _A[e_a]a[e'_a'] a[ea]G[eg] | ^F[=A^f]f[=a^f'] g[bg']g[Bg] | (F[_A=f]f[_af'] f[Ae]E[Ae]) | %228
 (D[^Fd]d[^fd'] d[=E^c]^C[Ec]) | (=C[_E=c]c[ec'] =B[e=b]c[ec'] | c[ec']e[_ge'] d[gd']e[ge'] | %231
 e[_ge']g[b_g'] f[_af']g[__bg'] | ^f[=a^f']!8va(!a[c'a'] b[d'b']c'[e'c'']) | %233
 c'[e'c'']b[d'b'] b[d'b']a[c'a'] | a[c'a']g[bg'] g[bg']d[^fd'] | x8 | x8 | x4!8va)! x4 | x8 | x8 | %240
 x8 | x8 | x8 | x8 | x4!8va(! x4 | x99/10!8va)! x61/10 | x16 | x8 | x255/32 | x8 | x8 | x8 | %252
[K:treble] x69/10!8va(! x6/5 | x!8va)! x7 | x8 | x4!8va(! x4 | x8!8va)! | x8 | x8 | x8 | %260
!8va(! x8!8va)! | x8 |] %262
V:4
 x8 | x8 | x8 | x8 | x8 | x8 | x8 ||[M:6/4] x6 x2 x3 x | x12 | x6 x2 x3 x | x12 | x6 x2 x3 x | %12
 x12 | x6 x2 A4 | x12 | x6 x2 x3 x | x12 | x6 x2 x3 x | x12 | x6 x2 x3 x | x12 | x12 | x12 | x12 | %24
 x12 | x12 | x>x x2 x8 | x12 | x3/2 x/ x2 x8 | x12 | x12 | x25/2 | x12 | x12 | x12 | x12 | x12 | %37
 x12 | x12 | x12 | x12 | x12 | x12 | x12 | x12 | x12 | x12 | x3!8va(! x9 | x12 | x12!8va)! | x12 | %51
 x12 | x6[K:bass] x6 | x12 | x12 |[K:treble] x9!8va(! x3 | x4!8va)! x8 | x12 | x12 | x9!8va(! x3 | %60
 x4!8va)! x8 | x12 | x12 | x10!8va(! x2 | x2!8va)! x10 | x12 | x12 | x12 | x12 | x12 | x12 | x12 | %72
 x12 | x12 | x12 | x12 | x12 | x12 | x12 | x12 | x12 | x12 | x12 | x12 | x12 | x12 | x12 | x12 | %88
 x12 | x12 | x12 | x12 | x12 | x6 x2 x3 x | x12 | x6 x2 x3 x | x12 | x6 x2 x3 x | x12 | %99
 x6 x2 x3 x | x12 | x12 | x12 | x12 | x12 | x12 | x12 | x12 | x12 | x12 | x12 | ^f6 ^e6 | %112
 x2 A4 x/x/x x4 | x12 | x12 | x12 | x6!8va(! x6 | x2!8va)! x10 | x12 | x12 | x12 | x12 | x12 | %123
 x12 |[K:bass] x6 x4 _C2 | x12 | x12 | x12 | x12 | x2[K:treble] x10 | x12 | x12 |!8va(! x12 | x12 | %134
 x12 | x12 | x6!8va)! x6 | x12 | x12 | x12 | x12 | x12 | x12 | x12 | x12 | x12 | x12 | x12 | x12 | %149
 x12 | x12 | x12 | x12 | x12 | x12 | x12 | x12 | x12 | x12 | x12 | x12 | x5!8va(! x7 | %162
 x6!8va)! x6 | x12 | x12 | x12 | x12 | x12 | x12 | x12 | x12 | x12 | x12 | x12 | x12 | x12 | x12 | %177
 x12 | (5:4:5x/x/x/x/x/ x2 x8 | x12 | x12 | x12 | x12 | x12 | x12 | x12 | x12 | x12 | x12 | x12 | %190
 x12 | x12 | x12 | x6 x2 x3 x | x12 | x6 x2 x3 x | x12 | x6 x2 x3 x | x12 | x6 x2 x3 x | x12 | %201
 x12 | x12 | x12 | x12 | x3!8va(! x8!8va)! x | x12 ||[M:2/2] x2!8va(! x6!8va)! | x8 | x8 | x8 | %211
 x2!8va(! x6!8va)! | x8 | x8 | x8 | x8 | x8 | x8 | x8 | x8 | x8 | x8 | x8 | x8 | x8 | x8 | x8 | %227
 x8 | x8 | x8 | x8 | x8 | x2!8va(! x6 | x8 | x8 | x8 | x8 | x4!8va)! x4 | x8 | x8 | x8 | x8 | x8 | %243
 x8 | x4!8va(! x4 | x99/10!8va)! x61/10 | x16 | x8 | x255/32 | x8 | x8 | x8 | %252
[K:treble] x69/10!8va(! x6/5 | x!8va)! x7 | x8 | x4!8va(! x4 | x8!8va)! | x8 | x8 | x8 | %260
!8va(! x8!8va)! | x8 |] %262
V:5
 x8 | x8 | x8 | x8 | x8 | x8 | x8 ||[M:6/4] x6 x3 ^F2 x | x12 | x6 x3 ^F2 x | x12 | x6 x3 ^F2 x | %12
 x12 | x12 | x12 | x6 x3 ^F2 x | x12 | x6 x3 ^F2 x | x12 | x6 x3 ^F2 x | x12 | x12 | x12 | x12 | %24
 x12 | x12 | x12 | x12 | x12 | x12 | x12 | x25/2 | x12 | x12 | x12 | x12 | x12 | x12 | x12 | x12 | %40
 x12 | x12 | x12 | x12 | x12 | x12 | x12 | x3!8va(! x9 | x12 | x12!8va)! | x12 | x12 | %52
 x6[K:bass] x6 | x12 | x12 |[K:treble] x9!8va(! x3 | x4!8va)! x8 | x12 | x12 | x9!8va(! x3 | %60
 x4!8va)! x8 | x12 | x12 | x10!8va(! x2 | x2!8va)! x10 | x12 | x12 | x12 | x12 | x12 | x12 | x12 | %72
 x12 | x12 | x12 | x12 | x12 | x12 | x12 | x12 | x12 | x12 | x12 | x12 | x12 | x12 | x12 | x12 | %88
 x12 | x12 | x12 | x12 | x12 | x6 x3 ^G2 x | x12 | x6 x3 ^G2 x | x12 | x6 x3 ^G2 x | x12 | %99
 x6 x3 ^G2 x | x12 | x12 | x12 | x12 | x12 | x12 | x12 | x12 | x12 | x12 | x12 | x12 | x12 | x12 | %114
 x12 | x12 | x6!8va(! x6 | x2!8va)! x10 | x12 | x12 | x12 | x12 | x12 | x12 |[K:bass] x12 | x12 | %126
 x12 | x12 | x12 | x2[K:treble] x10 | x12 | x12 |!8va(! x12 | x12 | x12 | x12 | x6!8va)! x6 | x12 | %138
 x12 | x12 | x12 | x12 | x12 | x12 | x12 | x12 | x12 | x12 | x12 | x12 | x12 | x12 | x12 | x12 | %154
 x12 | x12 | x12 | x12 | x12 | x12 | x12 | x5!8va(! x7 | x6!8va)! x6 | x12 | x12 | x12 | x12 | %167
 x12 | x12 | x12 | x12 | x12 | x12 | x12 | x12 | x12 | x12 | x12 | x12 | x12 | x12 | x12 | x12 | %183
 x12 | x12 | x12 | x12 | x12 | x12 | x12 | x12 | x12 | x12 | x6 x3 ^F2 x | x12 | x6 x3 ^F2 x | %196
 x12 | x6 x3 ^F2 x | x12 | x6 x3 ^F2 x | x12 | x12 | x12 | x12 | x12 | x3!8va(! x8!8va)! x | x12 || %207
[M:2/2] x2!8va(! x6!8va)! | x8 | x8 | x8 | x2!8va(! x6!8va)! | x8 | x8 | x8 | x8 | x8 | x8 | x8 | %219
 x8 | x8 | x8 | x8 | x8 | x8 | x8 | x8 | x8 | x8 | x8 | x8 | x8 | x2!8va(! x6 | x8 | x8 | x8 | x8 | %237
 x4!8va)! x4 | x8 | x8 | x8 | x8 | x8 | x8 | x4!8va(! x4 | x99/10!8va)! x61/10 | x16 | x8 | %248
 x255/32 | x8 | x8 | x8 |[K:treble] x69/10!8va(! x6/5 | x!8va)! x7 | x8 | x4!8va(! x4 | x8!8va)! | %257
 x8 | x8 | x8 |!8va(! x8!8va)! | x8 |] %262
V:6
 x8 | x8 | x8 | x8 | x8 | x8 | x8 ||[M:6/4] x12 | x12 | x12 | x12 | x12 | x12 | x12 | x12 | x12 | %16
 x12 | x12 | x12 | x12 | x12 | x2 (.C,,2 .G,2) x2 (.D,,2 .G,2) | x2 (.E,,2 .G,2) x2 (.D,,2 .G,2) | %23
 x12 | x4 x!<(!x/x/ !///-!x2 x2 (5:4:5x/x/x/x/x/!<)! | x12 | x12 | x12 | x12 | x12 | x12 | x25/2 | %32
 x12 | x12 | x4 G,2 D,6 | x2 [G,B,]4 x2 [^F,A,]4 | x2 [G,B,]4 x2 [=F,_A,=B,]4 | x2 [E,G,]4 x2 E,4 | %38
 x2 [D,C]4 x6 | x2 G,4 x2 ^F,4 | x2 G,4 x2 F,4 | x2 E,4 x2 C,4 | x12 | G,,2 G,,,2 x2 G,,2 G,,4 | %44
 [G,,C,E,]6- [G,,C,E,]2 G,,2 E,2 | D,2 G,,4 G,2 G,4 |[K:treble] [G,CE]6- [G,CE]2 G,2 E2 | x12 | %48
 x2 D4 x6 | x4[K:bass] x8 | x2 D,4 x6 | x12 | x12 | x12 | x12 | x12 | x12 | x12 | x12 | x12 | x12 | %61
 x10 (D,,2 | F,,,12-) | F,,,4 x8 | x12 | x12 | x12 | x12 | x12 | x12 | x6[K:treble] x6 | x12 | %72
[K:bass] x12 | x12 | x12 | x12 | x12 | x12 | x6[K:treble] x6 |[K:bass] x6 G,6 | F,6 x6 | x12 | %82
 x12 | x12 | x12 | x12 | x12 | x12 | x12 | x12 | x12 | x2[K:treble] x10 | %92
[K:bass] x2[K:treble] x10 |[K:bass] x12 | z2 (.=E,,2 .E,,2) z2 (.[=E,A,]2 .[E,A,]2) | %95
 z2 (.[=E,A,]2 .[E,A,]2) z2 (.=E,,2 .E,,2) | z2 (.=E,,2 .E,,2) z2 (.E,,2 .E,,2) | %97
 z2 (.=E,,2 .E,,2) z2 (.E,,2 .E,,2) | z2 (.=E,,2 .E,,2) z2 (.[=E,A,C]2 .[E,A,C]2) | %99
 z2 (.[=E,A,C]2 .[E,A,C]2) z2 (.=E,,2 .E,,2) | z2 (.=E,,2 .E,,2) z2 (.[=E,A,C]2 .[E,A,C]2) | %101
 z2 (.[=E,A,C]2 .[E,A,C]2) z2 [E,A,C]2 z2 | z2 (.[=E,A,C]2 .[E,A,C]2) z2 [E,A,C]2 z2 | %103
 z2 (.[=E,A,C]2 .[E,A,C]2) z2 [E,A,C]2 z2 | %104
 z2 (.[=E,A,C]2 .[E,A,C]2) z2 (.[E,A,C]2 !arpeggio!.[E,A,C]2) | x12 | x12 | x12 | x12 | %109
 .^F,,2 ^F,2 A,2 .=B,,,2 ([F,D]2 [=B,A]2) | .=E,,2 =E,2 ^G,2 .A,,,2 ([E,^C]2 [A,^G]2) | x12 | %112
 .^F,,,2 ^F,4 .=B,,,2 F,4 | x12 | x12 | x12 | x12 | x12 | x12 | x12 | x12 | x12 | x12 | x12 | x12 | %125
 x12 | x12 | x12 | x12 | x12 | x12 |[K:treble] x12 | x12 | x12 | x12 | x12 | x12 | %137
[K:bass] x2[K:treble] [EG]4[K:bass] x2[K:treble] (=A,2 B,2) | %138
 x2[K:treble] [EG]4[K:bass] x2[K:treble] (=A,2 B,2) | %139
 x2[K:treble] [B,E]4[K:bass] x2[K:treble] [_A,C]4 |[K:bass] x2 [F,_A,]4 x2 [F,A,]4 | %141
 x2[K:treble] [EG]4[K:bass] x2[K:treble] (=A,2 B,2) | %142
 x2[K:treble] [EG]4[K:bass] x2[K:treble] (=A,2 B,2) | %143
 x2[K:treble] [B,E]4[K:bass] x2[K:treble] [_A,C]4 |[K:bass] x12 | x12 | x12 | x12 | x12 | x12 | %150
 x12 | x12 | x12 | x2[K:treble] x10 | x10[K:bass] x2 | x12 | x12 | x12 | x8[K:treble] x4 | x12 | %160
 x12 | x12 | x12 |[K:bass] x12 | x12 | x12 | x12 | x12 | x12 | x12 | x12 | x12 | x12 | x12 | x12 | %175
 x12 | x6[K:treble] x4[K:bass] x2 | x12 | x12 | x12 | x12 | x12 | x12 | x12 | x12 | x12 | x12 | %187
 x12 | x12 | x12 | x6[K:treble] x3[K:bass] x3 | x12 | x12 | x12 | %194
 z2 (.D,,2 .D,,2) z2 (.[D,G,]2 .[D,G,]2) | z2 (.[D,G,]2 .[D,G,]2) z2 (.D,,2 .D,,2) | %196
 z2 (.D,,2 .D,,2) z2 (.D,,2 .D,,2) | z2 (.D,,2 .D,,2) z2 (.D,,2 .D,,2) | %198
 z2 (.D,,2 .D,,2) z2 (.[D,G,B,]2 .[D,G,B,]2) | z2 (.[D,G,B,]2 .[D,G,B,]2) z2 (.D,,2 .D,,2) | %200
 z2 (.D,,2 .D,,2) z2 (.[D,G,B,]2 .[D,G,B,]2) | z2 (.[D,G,B,]2 .[D,G,B,]2) z2 [D,G,B,]2 z2 | %202
 z2 (.[D,G,B,]2 .[D,G,B,]2) z2 [D,G,B,]2 z2 | z2 (.[D,G,B,]2 .[D,G,B,]2) z2 [D,G,B,]2 z2 | %204
 z2 (.[B,^C=E]2 .[B,CE]2) z2 [B,CE]2 z2 | x12 | x12 ||[M:2/2] x8 | x8 | x8 | x8 | x8 | x8 | x8 | %214
 x8 | G,2 !>!C,6 | x8 | C,8 | x8 | =B,,4 C,4 | D,4 E,4 | x8 | x4 D,4 | G,2 !>!C,6 | x8 | %225
 C,4 D,2 E,2 | x8 | x8 | x8 | x8 | x8 | x8 | x2[K:treble] x6 | %233
[K:bass] x2[K:treble] x2[K:bass] x2[K:treble] x2 | %234
[K:bass] x2[K:treble] x2[K:bass] x2[K:treble] x2 | %235
[K:bass] x2[K:treble] x2[K:bass] x2[K:treble] x2 | %236
[K:bass] x2[K:treble] x2[K:bass] x2[K:treble] x2 |[K:bass] x4[K:treble] x4 | x4[K:bass] x4 | x8 | %240
 x8 | x8 | x8 | x8 | x8 | x16 | x16 | x8 | x255/32 | x8 | x8 | x8 | x5[K:treble] x83/32 | %253
 x4[K:bass] x4 | x8 | x8 | x8 | x8 | x8 | x8 | x8 | x8 |] %262
V:7
 x8 | x8 | x8 | x8 | x8 | x8 | x8 ||[M:6/4] x12 | x12 | x12 | x12 | x12 | x12 | x12 | x12 | x12 | %16
 x12 | x12 | x12 | x12 | x12 | x12 | x12 | x12 | x12 | x12 | x12 | x12 | x12 | x12 | x12 | x25/2 | %32
 x12 | x12 | x12 | x12 | x12 | x12 | x12 | x12 | x12 | x12 | x12 | x12 | x12 | x12 | %46
[K:treble] x12 | x12 | x12 | x4[K:bass] x8 | x12 | x12 | x12 | x12 | x12 | x12 | x12 | x12 | x12 | %59
 x12 | x12 | x12 | x12 | x12 | x12 | x12 | x12 | x12 | x12 | x12 | x6[K:treble] x6 | x12 | %72
[K:bass] x12 | x12 | x12 | x12 | x12 | x12 | x6[K:treble] x6 |[K:bass] x12 | x12 | x12 | x12 | %83
 x12 | x12 | x4 !>!B,2 x2 x4 | x12 | x12 | x12 | x4 !>!B,2 x2 x4 | x12 | x2[K:treble] x10 | %92
[K:bass] x2[K:treble] x10 |[K:bass] x12 | x12 | x12 | x12 | x12 | x12 | x12 | x12 | x12 | x12 | %103
 x12 | x6 x2 x (3x/x/x/ x2 | x12 | x12 | x12 | x12 | x12 | x12 | x12 | x12 | x12 | x12 | x12 | %116
 x12 | x12 | x12 | x12 | x12 | x12 | x12 | x12 | x12 | x12 | x12 | x12 | x12 | x12 | x12 | %131
[K:treble] x12 | x12 | x12 | x12 | x12 | x12 |[K:bass] x2[K:treble] x4[K:bass] x2[K:treble] x4 | %138
 x2[K:treble] x4[K:bass] x2[K:treble] x4 | x2[K:treble] x4[K:bass] x2[K:treble] x4 |[K:bass] x12 | %141
 x2[K:treble] x4[K:bass] x2[K:treble] x4 | x2[K:treble] x4[K:bass] x2[K:treble] x4 | %143
 x2[K:treble] x4[K:bass] x2[K:treble] x4 |[K:bass] x12 | x12 | x12 | x12 | x12 | x12 | x12 | x12 | %152
 x12 | x2[K:treble] x10 | x10[K:bass] x2 | x12 | x12 | x12 | x8[K:treble] x4 | x12 | x12 | x12 | %162
 x12 |[K:bass] x12 | x12 | x12 | x12 | x12 | x12 | x12 | x12 | x12 | x12 | x12 | x12 | x12 | %176
 x6[K:treble] x4[K:bass] x2 | x12 | x12 | x12 | x12 | x12 | x12 | x12 | x12 | x12 | x12 | x12 | %188
 x12 | x12 | x6[K:treble] x3[K:bass] x3 | x12 | x12 | x12 | x12 | x12 | x12 | x12 | x12 | x12 | %200
 x12 | x12 | x12 | x12 | x6 x2 x4 | x12 | x12 ||[M:2/2] x8 | x8 | x8 | x8 | x8 | x8 | x8 | x8 | %215
 x8 | x8 | x8 | x8 | x8 | x8 | x8 | x8 | x8 | x8 | x8 | x8 | x8 | x8 | x8 | x8 | x8 | %232
 x2[K:treble] x6 |[K:bass] x2[K:treble] x2[K:bass] x2[K:treble] x2 | %234
[K:bass] x2[K:treble] x2[K:bass] x2[K:treble] x2 | %235
[K:bass] x2[K:treble] x2[K:bass] x2[K:treble] x2 | %236
[K:bass] x2[K:treble] x2[K:bass] x2[K:treble] x2 |[K:bass] x4[K:treble] x4 | x4[K:bass] x4 | x8 | %240
 x8 | x8 | x8 | x8 | x8 | x16 | x16 | x8 | x255/32 | x8 | x8 | x8 | x5[K:treble] x83/32 | %253
 x4[K:bass] x4 | x8 | x8 | x8 | x8 | x8 | x8 | x8 | x8 |] %262

